!! 00000] TT[WS
!!!OTL: Xiang gege
!!!ARE: Asia, China, Shanxi Yuanping
!! Ethnic Group: Han
!! WII, 104 (2)
!!!SCT: J0552
!!!YEM: Copyright 1995, estate of Helmut Schaffrath.
**kern
*ICvox
*Ivox
*M2/4
*k[f#c#g#]
*A:
{4b
8f#
8a
=1
8b
4b
16dd
16ee
=2
8ff#
8ff#
4ee
=3
8ee
8ff#
4dd}
=4
{8dd
8b
8f#
8a
=5
4b
8dd
8f#
=6
4e
16f#
16e
8d
=7
2e}
==
!!!AGN: Xiaodiao. Qingge, Sichun
!!!ONB: ESAC (Essen Associative Code) Database: CHINA
!!!AMT: simple duple
!!!AIN: vox
!!!EED: Helmut Schaffrath
!!!EEV: 1.0
*-
